src/assets/img/css.svg

<svg width="35" height="35" viewBox="0 0 35 35" fill="none" xmlns="http://www.w3.org/2000/svg">
<g id="css3.9cecabbf6ce67609c48bc4f280a11002.svg" clip-path="url(#clip0_1_34)">
<path id="Vector" d="M5.04746 30.8139L2.37686 0.859131H31.7231L29.0499 30.8094L17.0322 34.1411L5.04746 30.8139Z" fill="#1572B6"/>
<path id="Vector_2" d="M17.0502 31.5946L26.7612 28.9022L29.0459 3.30817H17.0502V31.5946Z" fill="#33A9DC"/>
<path id="Vector_3" d="M17.0502 14.1608H21.9117L22.2475 10.3988H17.0502V6.72491H26.2627L26.1745 7.71065L25.2713 17.8347H17.0502V14.1608Z" fill="white"/>
<path id="Vector_4" d="M17.072 23.7021L17.0558 23.7068L12.9644 22.6021L12.7028 19.672H9.01537L9.52988 25.4406L17.0553 27.5292L17.072 27.5244V23.7021Z" fill="#EBEBEB"/>
<path id="Vector_5" d="M21.5993 17.6793L21.1568 22.5992L17.0593 23.7053V27.5276L24.5908 25.4404L24.6461 24.8196L25.2852 17.6793H21.5993Z" fill="white"/>
<path id="Vector_6" d="M17.0627 6.72491V10.3988H8.18874L8.11516 9.57321L7.94782 7.71065L7.85989 6.72491H17.0627ZM17.0503 14.1614V17.8352H13.0104L12.9368 17.0096L12.7692 15.1471L12.6815 14.1614H17.0503Z" fill="#EBEBEB"/>
</g>
<defs>
<clipPath id="clip0_1_34">
<rect width="34" height="34" fill="white" transform="translate(0.0499878 0.5)"/>
</clipPath>
</defs>
</svg>

<svg xmlns="http://www.w3.org/2000/svg" width="35" height="35" fill="none"><g clip-path="url(#a)"><path fill="#1572B6" d="M5.047 30.814 2.377.859h29.346L29.05 30.81l-12.018 3.332-11.985-3.327Z"/><path fill="#33A9DC" d="m17.05 31.595 9.711-2.693 2.285-25.594H17.05v28.287Z"/><path fill="#fff" d="M17.05 14.16h4.862l.335-3.761H17.05V6.725h9.213l-.089.986-.903 10.124h-8.22V14.16Z"/><path fill="#EBEBEB" d="m17.072 23.702-.016.005-4.092-1.105-.261-2.93H9.015l.515 5.769 7.525 2.088.017-.005v-3.822Z"/><path fill="#fff" d="m21.6 17.68-.443 4.92-4.098 1.105v3.823l7.532-2.088.055-.62.64-7.14h-3.687Z"/><path fill="#EBEBEB" d="M17.063 6.725v3.674H8.189l-.074-.826-.167-1.862-.088-.986h9.203Zm-.013 7.436v3.674h-4.04l-.073-.825-.168-1.863-.088-.986h4.37Z"/></g><defs><clipPath id="a"><path fill="#fff" d="M.05.5h34v34h-34z"/></clipPath></defs></svg>
